src/assets/duotone/Ghost.svg

<svg width="24" height="24" viewBox="0 0 24 24"  xmlns="http://www.w3.org/2000/svg">
<path opacity="0.4" d="M22 20.07V12.18C22 6.57999 17.5 2 12 2C6.5 2 2 6.57999 2 12.18V20.07C2 21.33 2.74998 21.67 3.66998 20.83L4.66998 19.92C5.03998 19.58 5.64001 19.58 6.01001 19.92L8.01001 21.75C8.38001 22.09 8.97998 22.09 9.34998 21.75L11.35 19.92C11.72 19.58 12.32 19.58 12.69 19.92L14.69 21.75C15.06 22.09 15.66 22.09 16.03 21.75L18.03 19.92C18.4 19.58 19 19.58 19.37 19.92L20.37 20.83C21.25 21.67 22 21.33 22 20.07Z" />
<path d="M12.0003 16.0703C10.4303 16.0703 8.86025 15.5803 7.55025 14.6003C7.22025 14.3503 7.15029 13.8803 7.40029 13.5503C7.65029 13.2203 8.12027 13.1503 8.45027 13.4003C10.5403 14.9703 13.4602 14.9703 15.5502 13.4003C15.8802 13.1503 16.3502 13.2203 16.6002 13.5503C16.8502 13.8803 16.7803 14.3503 16.4503 14.6003C15.1403 15.5803 13.5703 16.0703 12.0003 16.0703Z" />
<path d="M12.0001 11.3801C13.3146 11.3801 14.3801 10.3146 14.3801 9.00012C14.3801 7.68568 13.3146 6.62012 12.0001 6.62012C10.6857 6.62012 9.62012 7.68568 9.62012 9.00012C9.62012 10.3146 10.6857 11.3801 12.0001 11.3801Z" />
</svg>

<?xml version="1.0" encoding="UTF-8"?>
<svg width="24" height="24" viewBox="0 0 24 24" xmlns="http://www.w3.org/2000/svg">
 <path d="m22 20.07v-7.89c0-5.6-4.5-10.18-10-10.18s-10 4.58-10 10.18v7.89c0 1.26 0.74998 1.6 1.67 0.76l1-0.91c0.37-0.34 0.97003-0.34 1.34 0l2 1.83c0.37 0.34 0.96997 0.34 1.34 0l2-1.83c0.37-0.34 0.97-0.34 1.34 0l2 1.83c0.37 0.34 0.97 0.34 1.34 0l2-1.83c0.37-0.34 0.97-0.34 1.34 0l1 0.91c0.88 0.84 1.63 0.5 1.63-0.76z" opacity=".4"/>
 <path d="m12 16.07c-1.57 0-3.14-0.49-4.45-1.47-0.33-0.25-0.39996-0.72-0.14996-1.05s0.71998-0.4 1.05-0.15c2.09 1.57 5.0099 1.57 7.0999 0 0.33-0.25 0.8-0.18 1.05 0.15s0.1801 0.8-0.1499 1.05c-1.31 0.98-2.88 1.47-4.45 1.47z"/>
 <path d="m12 11.38c1.3145 0 2.38-1.0655 2.38-2.38 0-1.3144-1.0655-2.38-2.38-2.38-1.3144 0-2.38 1.0656-2.38 2.38 0 1.3145 1.0656 2.38 2.38 2.38z"/>
</svg>
